material/.icons/material/phone-minus-outline.svg

<svg xmlns="http://www.w3.org/2000/svg" viewBox="0 0 24 24"><path d="M20 15.5c-1.2 0-2.5-.2-3.6-.6h-.3c-.3 0-.5.1-.7.3l-2.2 2.2c-2.8-1.5-5.2-3.8-6.6-6.6l2.2-2.2c.3-.3.4-.7.2-1-.3-1.1-.5-2.4-.5-3.6 0-.5-.5-1-1-1H4c-.5 0-1 .5-1 1 0 9.4 7.6 17 17 17 .5 0 1-.5 1-1v-3.5c0-.5-.5-1-1-1M5 5h1.5c.1.9.3 1.8.5 2.6L5.8 8.8C5.4 7.6 5.1 6.3 5 5m14 14c-1.3-.1-2.6-.4-3.8-.8l1.2-1.2c.8.2 1.7.4 2.6.4V19M13 6v2h8V6z"/></svg>

<?xml version="1.0" encoding="UTF-8"?><!DOCTYPE svg PUBLIC "-//W3C//DTD SVG 1.1//EN" "http://www.w3.org/Graphics/SVG/1.1/DTD/svg11.dtd"><svg xmlns="http://www.w3.org/2000/svg" xmlns:xlink="http://www.w3.org/1999/xlink" version="1.1" id="mdi-phone-minus-outline" width="24" height="24" viewBox="0 0 24 24"><path d="M20 15.5C18.8 15.5 17.5 15.3 16.4 14.9H16.1C15.8 14.9 15.6 15 15.4 15.2L13.2 17.4C10.4 15.9 8 13.6 6.6 10.8L8.8 8.6C9.1 8.3 9.2 7.9 9 7.6C8.7 6.5 8.5 5.2 8.5 4C8.5 3.5 8 3 7.5 3H4C3.5 3 3 3.5 3 4C3 13.4 10.6 21 20 21C20.5 21 21 20.5 21 20V16.5C21 16 20.5 15.5 20 15.5M5 5H6.5C6.6 5.9 6.8 6.8 7 7.6L5.8 8.8C5.4 7.6 5.1 6.3 5 5M19 19C17.7 18.9 16.4 18.6 15.2 18.2L16.4 17C17.2 17.2 18.1 17.4 19 17.4V19M13 6V8H21V6Z" /></svg>
